X: 20
T:Jennie Rock the Cradle (#220)
M:4/4
L:1/8
S:Capt. F. O'Neill
R:Reel
K:D
(3ABc|dAFA DAFA|dAFG A2 (3ABc|dAFA DAFA|GFEF G2 (3ABc|
dAFA DAFA|dAFG A2 (3ABc|dBcA BGAF|GFEF G2||
FE|DFAc BGAF|DFAB A2 AF|DFAc BGAF|GFEF G2 FE|
DFAc BGAF|DFAB A2 (3ABc|dBcA BGAF|GFEF G2||
AG|(3FED AD BDAD|(3FED AB A2 AG|(3FED AD BDAD|
GFEF G2 AG|(3FED AD BDAD|(3FED AB A2 (3ABc|
dBcA BGAF|GFEF G2||
%
% [SEE NOTES TO JACK LATTIN #219]

